X:28
T: Mir mussen an d' Mille goen, S. 41
N: R0052
O: Luxemburg
S: D'Fraen um Kanddaaf an der aler Zeit, Luxemburg 1929]
R: ??, Walzer]
M: 3/4
L: 1/8
K: G
 | G6 | A2G2A2 | B4G2 | D6 |
B6 | G2A2B2 | c4B2 | A6 |
D2E2F2 | G3GG2 | A4A2 | B6 |
d4c2 | B4G2 | A2c2B2 | G6

@@@ Tune index: 8082
